X: 6788
T: Chapel Bell, The
R: jig
M: 6/8
K: Edorian
|:BGE EFA|Bze dBd|edB BAB|dfe dBA|
~B3 EFA|~B2e dBd|edB BAF|AFE EFA:|
|:B2f ~e3|def ~f2e|d2B BAB|dfe dBA|
~B3 eBe|def ~f2e|dBB BAF|AFE EFA:|

